X: 4265
T: The AULD INN
%R: jig
B: James Kerr "Merry Melodies" v.4 p.28 #265
Z: 2016 John Chambers <jc:trillian.mit.edu>
M: 6/8
L: 1/8
K: A
|:\
AGA E2A | F2A E2E | AGA Bcd | cBA BGE |\
AGA E2A | F2A E2A | def ecA | (B3 A2)c :|
cBc e2e | fga a2f | ecA AcA | BGE EFG |\
AGA E2A | F2A E2A | def ecA | (B3 A2)c :|

%%sep 1 1 500
%%sep 1 1 500

